X: 092
T: the Dance of Herana
%R: reel
B: J.Gray's Twenty four Country Dances (for the Year 1812) p.9 #2
S: http://www.eatmt.org.uk/gray_1812.htm 2014-8-7
Z: 2014 John Chambers <jc:trillian.mit.edu>
M: 2/4
L: 1/8
K: F
|:\
afcA | FAcf | afga | bgec |\
afcA | FAcf | ecde | f2z2 :|
|:\
c2f2 | d2B2 | g2gf | edc2 |\
afga | b2ge | cega | f2z2 :|
% - - - - - - - - - - - - - - - - - - - - - - - - -
%%begintext align
%% Change sides back again. down mid: up
%% again & pousette.
%%endtext
% - - - - - - - - - - - - - - - - - - - - - - - - -
